build/images/3dx.svg

<?xml version="1.0" encoding="UTF-8"?>
<svg width="54px" height="54px" viewBox="0 0 54 54" version="1.1" xmlns="http://www.w3.org/2000/svg" xmlns:xlink="http://www.w3.org/1999/xlink">
    <!-- Generator: sketchtool 63.1 (101010) - https://sketch.com -->
    <title>45D1A647-CBA7-40F2-9683-D218117B38CC</title>
    <desc>Created with sketchtool.</desc>
    <g id="Page-1" stroke="none" stroke-width="1" fill="none" fill-rule="evenodd">
        <g id="Kupa-shop---design" transform="translate(-445.000000, -2686.000000)" fill="#1E7960" fill-rule="nonzero">
            <g id="3d-(1)" transform="translate(445.000000, 2686.000000)">
                <path d="M8.72165203,34.1375098 C9.16032942,34.1375098 9.51597371,33.7818655 9.51597371,33.3431882 L9.51597371,27.8690409 C9.51597371,27.4303635 9.16032942,27.0747192 8.72165203,27.0747192 C8.28297465,27.0747192 7.92733035,27.4303635 7.92733035,27.8690409 L7.92733035,33.3431882 C7.92733035,33.7818655 8.28297465,34.1375098 8.72165203,34.1375098 Z" id="Path"></path>
                <path d="M8.72165203,23.1891094 C9.16032942,23.1891094 9.51597371,22.8334651 9.51597371,22.3947877 L9.51597371,20.1953639 L11.3989397,19.0587425 C11.774495,18.8319902 11.8952319,18.343853 11.6684796,17.9681918 C11.4418331,17.5927424 10.95359,17.4718996 10.5779288,17.698652 L8.31114659,19.0668976 C8.07295599,19.2107228 7.92733035,19.4686125 7.92733035,19.7469428 L7.92733035,22.3946818 C7.92733035,22.8334651 8.28297465,23.1891094 8.72165203,23.1891094 L8.72165203,23.1891094 Z" id="Path"></path>
                <path d="M15.5737886,16.405814 C15.7134833,16.405814 15.8550843,16.3689575 15.9835526,16.2914317 L20.5680596,13.524015 C20.9436149,13.2972626 21.0643518,12.8091255 20.8375995,12.4334643 C20.610953,12.0580149 20.1228159,11.9371721 19.7470488,12.1639245 L15.1625418,14.9313412 C14.7869865,15.1580935 14.6662496,15.6462307 14.8930019,16.0218919 C15.0421226,16.2690848 15.3046724,16.405814 15.5737886,16.405814 Z" id="Path"></path>
                <path d="M33.4046157,13.5284632 L37.9511012,16.2939736 C38.080099,16.3724525 38.2224415,16.4097327 38.3630893,16.4097327 C38.6312523,16.4097327 38.8929549,16.2739566 39.0424992,16.0280347 C39.2704165,15.6532207 39.1514801,15.1646599 38.7766662,14.9366367 L34.2301807,12.1711263 C33.8554727,11.9432089 33.366806,12.0622513 33.1387827,12.4369593 C32.9108653,12.8118791 33.0298018,13.3004399 33.4046157,13.5284632 L33.4046157,13.5284632 Z" id="Path"></path>
                <path d="M42.4975866,19.0595898 L44.3781167,20.2035189 L44.3781167,22.4047432 C44.3781167,22.8434206 44.733761,23.1990649 45.1724384,23.1990649 C45.6111158,23.1990649 45.9667601,22.8434206 45.9667601,22.4047432 L45.9667601,19.7570043 C45.9667601,19.479733 45.8221935,19.2224787 45.585168,19.0783358 L43.3230457,17.7023588 C42.9482318,17.4744415 42.459671,17.5934838 42.2316477,17.9681918 C42.0037304,18.3430058 42.1227727,18.8316724 42.4975866,19.0595898 L42.4975866,19.0595898 Z" id="Path"></path>
                <path d="M45.1724384,27.0778965 C44.733761,27.0778965 44.3781167,27.4335408 44.3781167,27.8722182 L44.3781167,33.339799 C44.3781167,33.7784764 44.733761,34.1341207 45.1724384,34.1341207 C45.6111158,34.1341207 45.9667601,33.7784764 45.9667601,33.339799 L45.9667601,27.8722182 C45.9667601,27.4335408 45.6111158,27.0778965 45.1724384,27.0778965 Z" id="Path"></path>
                <path d="M37.9511012,44.9180437 L33.4046157,47.683554 C33.0298018,47.9115773 32.9107594,48.400244 33.1387827,48.774952 C33.288327,49.0207681 33.5500295,49.15665 33.8181925,49.15665 C33.9588404,49.15665 34.1012888,49.119264 34.2301807,49.0408909 L38.7766662,46.2753805 C39.1514801,46.0473573 39.2705224,45.5586906 39.0424992,45.1839826 C38.8144759,44.8092745 38.326021,44.6899145 37.9511012,44.9180437 L37.9511012,44.9180437 Z" id="Path"></path>
                <path d="M28.8581302,50.4490644 L27.0071489,51.574883 L25.1524607,50.455313 C24.7767995,50.2284548 24.2885565,50.3492976 24.06191,50.7248529 C23.8351577,51.1004081 23.9558946,51.5886512 24.3314498,51.8154036 L26.5982321,53.1836491 C26.7244763,53.259904 26.8666069,53.2979255 27.0087375,53.2979255 C27.1517154,53.2979255 27.2947993,53.2593745 27.4214671,53.1822723 L29.6835893,51.8062953 C30.0584032,51.5782721 30.1774456,51.0896054 29.9494223,50.7148974 C29.7216108,50.3401893 29.2330501,50.2210411 28.8581302,50.4490644 Z" id="Path"></path>
                <path d="M20.5680596,47.6880022 L15.9834467,44.9206914 C15.6075737,44.6938331 15.1195425,44.8146759 14.892896,45.1902312 C14.6661437,45.5657865 14.7868806,46.0540296 15.1624358,46.2807819 L19.7470488,49.0480927 C19.875517,49.1256185 20.0170122,49.1624751 20.1568128,49.1624751 C20.425929,49.1624751 20.6884788,49.0256399 20.8375995,48.7785529 C21.0642459,48.4029976 20.9436149,47.9147546 20.5680596,47.6880022 Z" id="Path"></path>
                <path d="M27.000053,20.9393785 C27.4387303,20.9393785 27.7943746,20.5837343 27.7943746,20.1450569 L27.7943746,19.5350178 C27.7943746,19.0963404 27.4387303,18.7406961 27.000053,18.7406961 C26.5613756,18.7406961 26.2057313,19.0963404 26.2057313,19.5350178 L26.2057313,20.1450569 C26.2057313,20.5837343 26.5612697,20.9393785 27.000053,20.9393785 Z" id="Path"></path>
                <path d="M27.000053,25.4943368 C27.4387303,25.4943368 27.7943746,25.1386925 27.7943746,24.7000151 L27.7943746,24.0899761 C27.7943746,23.6512987 27.4387303,23.2956544 27.000053,23.2956544 C26.5613756,23.2956544 26.2057313,23.6512987 26.2057313,24.0899761 L26.2057313,24.7000151 C26.2057313,25.1386925 26.5612697,25.4943368 27.000053,25.4943368 Z" id="Path"></path>
                <path d="M50.6759226,41.6940508 C49.8272694,41.6940508 49.0523291,42.0141095 48.4643193,42.539315 L45.9667601,41.1122896 L45.9667601,38.807274 C45.9667601,38.3685966 45.6111158,38.0129523 45.1724384,38.0129523 C44.733761,38.0129523 44.3781167,38.3685966 44.3781167,38.807274 L44.3781167,40.2045388 L41.5167582,38.569613 C41.5173937,38.5515024 41.5185587,38.5333919 41.5185587,38.5152814 L41.5185587,22.6966299 C41.5185587,22.1504543 41.2286842,21.6348866 40.7619408,21.3508372 L27.8170393,13.4765675 C27.8095197,13.4720134 27.8017883,13.4682007 27.7942687,13.4637525 L27.7942687,10.1158454 L28.8581302,10.7629528 C28.9871281,10.8414318 29.1294705,10.878712 29.2701184,10.878712 C29.5382814,10.878712 29.7999839,10.7429359 29.9495282,10.4970139 C30.1774456,10.1222 30.0585091,9.63363923 29.6836952,9.40561595 L27.7942687,8.25628544 L27.7942687,6.61807641 C29.244806,6.26094938 30.3240244,4.94978906 30.3240244,3.39058856 C30.3240244,1.55761186 28.8328178,0.0665112019 26.999947,0.0665112019 C25.1670762,0.0665112019 23.6758697,1.55771777 23.6758697,3.39058856 C23.6758697,4.94978906 24.7550881,6.26094938 26.2056254,6.61807641 L26.2056254,8.26528775 L24.3315558,9.39650773 C23.9560005,9.62326009 23.8352636,10.1113972 24.0620159,10.4870584 C24.2887683,10.8627196 24.7769054,10.9834565 25.1525666,10.7565983 L26.2056254,10.1209291 L26.2056254,13.4620579 C26.1986353,13.4661884 26.1913276,13.4696834 26.1843375,13.4739198 L13.1365978,21.3499899 C12.6671008,21.6334039 12.3754258,22.1501366 12.3754258,22.6985363 L12.3754258,27.587851 C12.3754258,28.0265284 12.7310701,28.3821727 13.1697475,28.3821727 C13.6084249,28.3821727 13.9640692,28.0265284 13.9640692,27.587851 L13.9640692,23.6650669 L26.2055195,31.0544826 L26.2055195,45.895377 L14.1214508,38.6010681 C14.1146726,38.5875117 14.1085298,38.5737435 14.1007984,38.5603988 C14.0627769,38.4939936 14.0162826,38.4356374 13.9639633,38.3848008 L13.9639633,30.9730382 C13.9639633,30.5343608 13.608319,30.1787165 13.1696416,30.1787165 C12.7309642,30.1787165 12.3753199,30.5343608 12.3753199,30.9730382 L12.3753199,38.5136927 C12.3753199,38.5522438 12.3771204,38.5905831 12.37998,38.6287105 L9.51597371,40.2651191 L9.51597371,38.8172295 C9.51597371,38.3785521 9.16032942,38.0229078 8.72165203,38.0229078 C8.28297465,38.0229078 7.92733035,38.3785521 7.92733035,38.8172295 L7.92733035,41.172764 L5.53568073,42.5392091 C4.94767087,42.0140036 4.17262473,41.6939449 3.32407736,41.6939449 C1.49120656,41.6940508 1.49880108e-14,43.1852574 1.49880108e-14,45.0182341 C1.49880108e-14,46.8512108 1.49120656,48.3423115 3.32407736,48.3423115 C5.15694816,48.3423115 6.64815472,46.8511049 6.64815472,45.0182341 C6.64815472,44.6087877 6.57327667,44.2164987 6.43728879,43.8539703 L8.8542508,42.4730156 L10.5778229,43.5134711 C10.7061853,43.5909969 10.8477864,43.6278534 10.987587,43.6278534 C11.2567032,43.6278534 11.519253,43.4910183 11.6683736,43.2439313 C11.895126,42.868376 11.7743891,42.3801329 11.3988338,42.1533806 L10.4334682,41.5706662 L13.2760807,39.9464372 L26.1842316,47.7380974 C26.264617,47.786604 26.3481796,47.826426 26.4337546,47.8594698 C26.5778975,48.0059427 26.7781724,48.0970249 26.9998411,48.0970249 C27.222463,48.0970249 27.4233735,48.0052013 27.5676223,47.8576693 C27.6530913,47.8244137 27.7366539,47.784274 27.8168275,47.7354497 L32.9298232,44.6253096 C33.3046371,44.3972864 33.4236794,43.9086197 33.1956561,43.5339117 C32.9676329,43.1592036 32.4789662,43.0399495 32.1042582,43.2680787 L27.7941628,45.8898698 L27.7941628,31.0525762 L39.9297035,23.6705742 L39.9297035,38.5077618 L35.0275737,41.4896454 C34.6527598,41.7176687 34.5338234,42.2063354 34.7617408,42.5811493 C34.9112851,42.8269654 35.1729876,42.9627414 35.4411506,42.9627414 C35.5817985,42.9627414 35.7242468,42.9253553 35.8532447,42.8469823 L40.6710704,39.9163589 L43.5082815,41.5375165 L42.4973748,42.1524274 C42.1225609,42.3804507 42.0035186,42.8691174 42.2315418,43.2438254 C42.3810861,43.4896415 42.6427886,43.6255234 42.9109516,43.6255234 C43.0515995,43.6255234 43.1940479,43.5881373 43.3229398,43.5097643 L45.0846394,42.4381714 L47.5626053,43.8539703 C47.4266174,44.2164987 47.3517394,44.6086818 47.3517394,45.0182341 C47.3517394,46.8512108 48.8429459,48.3423115 50.6758167,48.3423115 C52.5086875,48.3423115 53.9998941,46.8511049 53.9998941,45.0182341 C53.9998941,43.1853633 52.5088993,41.6940508 50.6759226,41.6940508 L50.6759226,41.6940508 Z M3.32407736,46.7536681 C2.36718451,46.7536681 1.58864336,45.9751269 1.58864336,45.0182341 C1.58864336,44.0613412 2.36718451,43.2828001 3.32407736,43.2828001 C4.28097021,43.2828001 5.05951136,44.0613412 5.05951136,45.0182341 C5.05951136,45.9751269 4.28097021,46.7536681 3.32407736,46.7536681 Z M25.264513,3.39058856 C25.264513,2.43369571 26.0430542,1.65515456 26.999947,1.65515456 C27.9568399,1.65515456 28.735381,2.43369571 28.735381,3.39058856 C28.735381,4.34748141 27.9569458,5.12602257 27.000053,5.12602257 C26.0431601,5.12602257 25.264513,4.34748141 25.264513,3.39058856 L25.264513,3.39058856 Z M26.2057313,15.3167461 L26.2057313,16.1525843 C26.2057313,16.5912617 26.5613756,16.946906 27.000053,16.946906 C27.4387303,16.946906 27.7943746,16.5912617 27.7943746,16.1525843 L27.7943746,15.3223593 L39.1958562,22.2577407 L27.7943746,29.1931222 L27.7943746,28.2628126 C27.7943746,27.8241352 27.4387303,27.4684909 27.000053,27.4684909 C26.5613756,27.4684909 26.2057313,27.8241352 26.2057313,28.2628126 L26.2057313,29.1987354 L14.7070247,22.2576348 L26.2057313,15.3167461 Z M50.6759226,46.7536681 C49.7190298,46.7536681 48.9404886,45.9751269 48.9404886,45.0182341 C48.9404886,44.0613412 49.7190298,43.2828001 50.6759226,43.2828001 C51.6328155,43.2828001 52.4113566,44.0613412 52.4113566,45.0182341 C52.4113566,45.9751269 51.6328155,46.7536681 50.6759226,46.7536681 Z" id="Shape"></path>
            </g>
        </g>
    </g>
</svg>

<svg width="54" height="54" xmlns="http://www.w3.org/2000/svg"><g id="Page-1" stroke="none" stroke-width="1" fill="none" fill-rule="evenodd"><g id="Kupa-shop---design" transform="translate(-445 -2686)" fill="#1E7960" fill-rule="nonzero"><g id="3d-(1)" transform="translate(445 2686)"><path d="M8.722 34.138a.794.794 0 00.794-.795V27.87a.794.794 0 00-1.589 0v5.474c0 .439.356.795.795.795zm0-10.948a.794.794 0 00.794-.795v-2.2l1.883-1.136a.794.794 0 10-.821-1.36L8.31 19.067a.794.794 0 00-.384.68v2.648c0 .438.356.794.795.794zm6.852-6.784a.79.79 0 00.41-.115l4.584-2.767a.794.794 0 10-.821-1.36l-4.584 2.767a.794.794 0 00.41 1.475zm17.831-2.878l4.546 2.766a.794.794 0 10.826-1.357L34.23 12.17a.794.794 0 00-.825 1.357zm9.093 5.532l1.88 1.144v2.2a.794.794 0 001.589 0v-2.647a.794.794 0 00-.382-.679l-2.262-1.376a.794.794 0 00-.825 1.358zm2.674 8.018a.794.794 0 00-.794.794v5.468a.794.794 0 001.589 0v-5.468a.794.794 0 00-.795-.794zm-7.221 17.84l-4.546 2.766a.794.794 0 10.825 1.357l4.547-2.766a.794.794 0 10-.826-1.357zm-9.093 5.532l-1.85 1.125-1.856-1.12a.794.794 0 10-.82 1.36l2.266 1.369a.793.793 0 00.823-.002l2.263-1.376a.794.794 0 00-.826-1.357zm-8.29-2.762l-4.585-2.767a.794.794 0 10-.82 1.36l4.584 2.767a.794.794 0 10.821-1.36zM27 20.94a.794.794 0 00.794-.795v-.61a.794.794 0 00-1.588 0v.61c0 .439.355.794.794.794zm0 4.554a.794.794 0 00.794-.794v-.61a.794.794 0 00-1.588 0v.61c0 .439.355.794.794.794z" id="Path"/><path d="M50.676 41.694a3.31 3.31 0 00-2.212.845l-2.497-1.427v-2.305a.794.794 0 00-1.589 0v1.398l-2.861-1.635.002-.055V22.697c0-.547-.29-1.062-.757-1.346l-12.945-7.874-.023-.013v-3.348l1.064.647a.794.794 0 10.826-1.357l-1.89-1.15V6.618a3.33 3.33 0 002.53-3.227A3.328 3.328 0 0027 .067a3.328 3.328 0 00-3.324 3.324 3.33 3.33 0 002.53 3.227v1.647l-1.874 1.132a.794.794 0 10.82 1.36l1.054-.636v3.341l-.022.012-13.047 7.876c-.47.283-.762.8-.762 1.349v4.889a.794.794 0 001.59 0v-3.923l12.24 7.39v14.84l-12.084-7.294c-.006-.013-.012-.027-.02-.04a.796.796 0 00-.137-.176v-7.412a.794.794 0 00-1.589 0v7.54c0 .04.002.078.005.116l-2.864 1.636v-1.448a.794.794 0 00-1.589 0v2.356l-2.391 1.366a3.31 3.31 0 00-2.212-.845A3.328 3.328 0 000 45.018a3.328 3.328 0 003.324 3.324 3.328 3.328 0 003.113-4.488l2.417-1.381 1.724 1.04a.794.794 0 10.821-1.36l-.966-.582 2.843-1.625 12.908 7.792c.08.049.164.088.25.121a.792.792 0 001.134-.001c.085-.034.169-.074.249-.123l5.113-3.11a.794.794 0 10-.826-1.357l-4.31 2.622V31.053L39.93 23.67v14.837l-4.902 2.982a.794.794 0 00.825 1.357l4.818-2.93 2.837 1.62-1.01.615a.794.794 0 10.825 1.358l1.762-1.072 2.478 1.416a3.328 3.328 0 003.113 4.488A3.328 3.328 0 0054 45.018a3.328 3.328 0 00-3.324-3.324zm-47.352 5.06a1.737 1.737 0 01-1.735-1.736 1.737 1.737 0 013.471 0c0 .957-.779 1.736-1.736 1.736zM25.264 3.39c0-.957.78-1.736 1.736-1.736.957 0 1.735.779 1.735 1.736 0 .956-.778 1.735-1.735 1.735a1.738 1.738 0 01-1.735-1.735zm.942 11.926v.836a.794.794 0 001.588 0v-.83l11.402 6.935-11.402 6.935v-.93a.794.794 0 00-1.588 0v.936l-11.499-6.941 11.499-6.941zm24.47 31.437a1.737 1.737 0 01-1.736-1.736 1.737 1.737 0 111.736 1.736z" id="Shape"/></g></g></g></svg>
